lib/brands/icons/atlassian.svg

<svg xmlns="http://www.w3.org/2000/svg" fill="none" aria-hidden="true" viewBox="0 0 48 48"><g id="atlassian-Icon"><g id="Atlassian"><path id="Shape" fill="url(#paint0_linear_94_17085)" d="M16.676 22.6263C16.138 22.0515 15.2997 22.0841 14.9341 22.8154L6.11144 40.4611C5.94788 40.7881 5.9653 41.1764 6.15748 41.4874C6.34966 41.7984 6.68919 41.9877 7.05478 41.9877H19.3416C19.7438 41.997 20.1136 41.7684 20.2851 41.4044C22.9345 35.9267 21.3293 27.598 16.676 22.6263Z"/><path id="Shape_2" fill="#2681FF" d="M23.1497 6.57716C18.2151 14.3955 18.5406 23.0545 21.791 29.5553L27.7155 41.4044C27.8942 41.7617 28.2594 41.9874 28.6588 41.9874H40.9455C41.311 41.9875 41.6506 41.7982 41.8427 41.4872C42.0349 41.1762 42.0524 40.7879 41.8888 40.4609C41.8888 40.4609 25.3596 7.39769 24.9438 6.57045C24.572 5.82988 23.6277 5.81981 23.1497 6.57716Z"/></g></g><defs><linearGradient id="paint0_linear_94_17085" x1="15.1608" x2="2.79127" y1="19.4365" y2="32.7235" gradientUnits="userSpaceOnUse"><stop stop-color="#0052CC"/><stop offset="0.923" stop-color="#2684FF"/></linearGradient></defs></svg>

<svg xmlns="http://www.w3.org/2000/svg" fill="none" aria-hidden="true" viewBox="0 0 48 48"><path fill="url(#a)" d="M16.676 22.626c-.538-.575-1.376-.542-1.742.19L6.111 40.46a1.055 1.055 0 0 0 .944 1.527h12.287c.402.009.772-.22.943-.584 2.65-5.477 1.044-13.806-3.609-18.778Z"/><path fill="#2681FF" d="M23.15 6.577c-4.935 7.819-4.61 16.478-1.359 22.978l5.924 11.85c.18.357.544.582.944.582h12.287a1.054 1.054 0 0 0 .943-1.526S25.359 7.398 24.944 6.57c-.372-.741-1.316-.751-1.794.006Z"/><defs><linearGradient id="a" x1="15.161" x2="2.791" y1="19.436" y2="32.724" gradientUnits="userSpaceOnUse"><stop stop-color="#0052CC"/><stop offset=".923" stop-color="#2684FF"/></linearGradient></defs></svg>
